packages/icons/src/emoji/svg/firecracker.svg

<svg width="120" height="120" viewBox="0 0 120 120" fill="none" xmlns="http://www.w3.org/2000/svg">
<g clip-path="url(#clip0_212_520)">
<path d="M68.0535 54.7125C67.4441 55.8188 66.8348 56.9344 66.2535 58.0406L65.766 58.9594L65.7191 59.0344C67.4348 61.3125 68.9066 63.7594 70.0691 66.2438C70.2379 66.5906 70.3973 66.9469 70.5566 67.3031C72.216 66.8156 73.8848 66.5438 75.516 66.4781C74.2879 63.225 72.3941 59.85 69.6098 56.4375C69.1223 55.8469 68.5879 55.2844 68.0535 54.7125ZM73.0598 79.8375C72.7129 79.8375 72.3566 79.8563 72.0004 79.8938C70.0598 86.025 63.7598 88.7063 57.1035 87.8813C46.6504 86.5969 37.0598 78.6469 33.8441 68.6625C33.1879 66.6656 32.9629 64.6781 32.8879 62.5594C32.7004 57.1031 33.7504 51.2625 39.216 49.0031L39.2816 48.975C39.4598 48.9 39.6379 48.8531 39.816 48.7969C39.4223 48.2063 39.0191 47.5875 38.6348 46.9031C38.091 45.9375 37.7629 44.9156 37.566 43.9219C31.7066 45.9656 28.1348 51.1406 25.6316 56.8406C23.241 62.2969 7.70664 104.25 7.70664 104.25L5.62539 109.875C4.91289 111.825 3.80664 113.784 3.80664 115.913C3.80664 118.397 6.01914 120.094 8.51289 119.4C10.1816 118.931 12.0191 118.069 13.716 117.394C17.3066 115.931 23.9629 113.053 23.9629 113.053L51.7879 101.597C51.7879 101.597 65.2035 96.7406 70.8473 91.425C73.5848 88.8469 75.7785 85.1344 76.7441 80.7C76.5473 80.5969 76.341 80.4844 76.1348 80.4C75.1973 80.0156 74.1941 79.8375 73.0598 79.8375ZM52.2004 44.5688C52.9223 45.9469 53.7191 47.5125 54.0191 49.4531C55.3504 50.0156 56.6254 50.6906 57.8348 51.4875C58.2566 50.1375 58.6973 48.8063 59.1566 47.4469C58.9598 47.325 58.7629 47.1844 58.566 47.0719C56.5879 45.9469 54.366 44.9906 52.0504 44.2781C52.1066 44.3813 52.1535 44.4656 52.2004 44.5688Z" fill="#FCC21B"/>
<path d="M104.934 29.9813C104.784 30.9188 104.822 32.25 104.972 33.1688C105.131 34.2 105.366 35.2969 105.741 36.2719C106.275 37.6406 106.931 37.1625 108.272 36.975C109.2 36.8531 110.062 36.9188 110.981 36.7313C111.947 36.5344 112.903 36.2813 113.869 36.0938C116.137 35.6625 117.272 35.1563 116.794 32.7656C116.447 31.0406 115.875 29.325 115.425 27.6188C115.012 27.2531 114.216 27.4594 113.728 27.5719C112.866 27.7688 112.012 27.8156 111.15 27.9656C109.594 28.2188 107.962 28.4063 106.434 28.7719C105.656 28.9406 105.056 29.175 104.934 29.9813Z" fill="#D7598B"/>
<path d="M92.6905 58.1251C93.0468 58.9407 93.9186 58.7345 94.7717 58.922C96.6655 59.3532 98.5874 59.3063 100.528 59.3063C101.25 59.3063 103.078 59.5782 103.594 58.9313C104.006 58.4063 103.65 57.3657 103.594 56.7563L103.369 54.3751C103.331 54.0001 103.397 51.5438 103.078 51.3376C102.534 50.972 101.503 51.1501 100.884 51.1595C99.7499 51.197 98.6343 51.3376 97.4811 51.3376C95.9905 51.3376 94.378 51.3563 92.9342 51.7126C92.428 53.0532 92.5686 54.4501 92.5686 55.922C92.5686 56.6063 92.4186 57.4876 92.6905 58.1251Z" fill="#40C0E7"/>
<path d="M86.1745 98.6157C85.3964 97.4626 85.012 95.9157 83.2777 96.0845C81.6464 96.2439 80.2027 97.5376 78.7683 98.2407C77.8402 98.6907 77.1652 99.497 76.9777 100.509C76.762 101.663 77.2402 102.581 77.7933 103.566C78.2058 104.306 78.4777 105.159 78.8058 105.938C79.1433 106.744 79.6589 107.466 80.0058 108.263C80.2402 108.825 80.1652 108.778 80.6808 108.975C80.9433 109.069 81.3745 109.144 81.6558 109.153C83.2964 109.2 85.0777 107.541 86.2683 106.566C87.2245 105.797 89.137 105.309 88.9402 103.856C88.7996 102.778 88.0496 101.738 87.5339 100.809C87.1027 100.05 86.6433 99.3189 86.1745 98.6157Z" fill="#D7598B"/>
<path d="M104.494 106.491C104.278 106.35 104.072 106.266 103.885 106.237C102.891 106.059 102.235 107.259 101.447 108.037C100.5 108.947 99.3752 109.669 98.5127 110.662C97.5846 111.75 98.3065 112.725 99.2627 113.306C100.303 113.934 101.231 114.722 102.263 115.378C103.181 115.969 103.922 116.494 104.944 115.856C105.872 115.275 106.388 114.253 107.025 113.4C108.206 111.806 110.222 110.522 108.244 108.769C107.138 107.784 105.713 107.297 104.494 106.491ZM8.43774 51.6187C8.48461 51.1874 9.70336 47.7374 9.33774 47.6343C8.50336 47.4281 7.71586 47.0343 6.87211 46.8093C5.89711 46.5562 4.89399 46.3593 3.98461 45.9093C2.88774 45.3656 2.21274 45.6374 1.75336 46.2468C1.10649 47.1093 0.900238 48.6562 0.590863 49.6031C0.347113 50.3437 0.197113 51.1874 0.722113 51.7124C1.32211 52.3031 2.31586 52.6406 3.09399 52.8937C4.06899 53.2124 5.15649 53.7749 6.15961 53.8687C7.52836 54.0187 8.29711 52.7812 8.43774 51.6187ZM64.3409 18.3187C65.5596 18.8624 66.7409 19.1718 67.9877 19.5281C68.4284 19.6593 68.7096 19.8749 69.169 19.6312C69.7596 19.3312 70.4159 18.2906 70.744 17.7187C71.5221 16.3031 72.094 14.9062 72.6284 13.4156C72.919 12.6187 73.7815 11.3249 73.5659 10.4812C73.3784 9.76868 72.3471 9.32805 71.7659 9.01868C70.9877 8.61555 70.2471 8.0718 69.4596 7.72493C68.4471 7.2843 67.0596 6.80618 65.9721 6.6468C65.3721 6.55305 64.9502 6.7968 64.6221 7.18118C64.3221 7.52805 64.0971 7.98743 63.8721 8.4093C62.7377 10.5843 61.3409 13.8562 61.3877 16.3687C61.4065 17.5593 63.4409 17.9156 64.3409 18.3187Z" fill="#40C0E7"/>
<path d="M15.6092 31.2188C16.2936 32.2688 16.903 33.225 17.7092 34.2188C18.4967 35.175 19.0592 35.3625 20.0248 34.5656C20.6342 34.0781 21.328 33.6938 21.9092 33.1688C22.4623 32.6813 22.9217 32.0625 23.4748 31.5563C23.8686 31.1906 24.6467 30.825 24.8717 30.3188C25.1811 29.6063 24.5342 28.9875 24.1405 28.4625C23.653 27.8063 23.278 27.0938 22.7436 26.4375C22.0592 25.6125 21.3186 24.8344 20.5498 24.0656C19.9217 23.4375 19.1623 22.4719 18.4498 21.9844C18.2623 21.8625 18.0467 21.7781 17.8217 21.75C16.9686 21.6281 15.9561 22.1156 15.2905 22.5094C14.3811 23.0438 13.4998 23.8406 12.703 24.5438C11.4561 25.65 12.6655 27.1031 13.3967 28.1531C14.128 29.1656 14.9155 30.15 15.6092 31.2188Z" fill="#D7598B"/>
<path d="M15.6847 9.3468C16.3128 10.0218 17.091 10.8374 17.9722 11.2218C18.7503 11.5687 19.5472 10.8749 20.1753 10.4906C20.8785 10.0593 21.4503 9.43118 21.9753 8.80305C22.4535 8.2218 23.1003 7.59368 23.4566 6.91868C23.8691 6.14993 23.3066 5.8593 22.7347 5.39993C22.0503 4.83743 21.3566 4.25618 20.7753 3.58118C19.9878 2.66243 19.2003 1.63118 18.366 0.787427C18.0847 0.496802 17.7472 0.421802 17.391 0.487427C16.2753 0.674927 14.9535 2.24055 14.2972 2.75618C13.7722 3.1593 12.8535 3.8718 12.6941 4.53743C12.4972 5.28743 12.9378 6.0093 13.3128 6.63743C13.9222 7.64993 14.8597 8.46555 15.6847 9.3468Z" fill="#40C0E7"/>
<path d="M42.9934 27.3656C44.2871 31.8468 40.8371 35.3062 40.4621 39.5531C40.3496 40.7812 40.3496 42.0093 40.5559 43.1906C40.6871 43.9593 40.9028 44.7093 41.2871 45.3937C41.7934 46.2937 42.3746 47.1093 42.909 47.9531C43.434 48.7687 43.9028 49.5937 44.2215 50.5406C44.9246 52.6406 44.4371 54.5343 44.1371 56.6156C43.8934 58.275 43.0496 59.8406 42.0371 61.1531C41.7278 61.5562 40.8746 62.0718 41.0809 62.6624C41.109 62.7656 41.2965 62.8031 41.5684 62.8031C42.6934 62.8031 45.3465 62.1187 45.7309 61.9406C47.4184 61.1249 48.4028 59.475 49.2746 57.8812C50.5684 55.5187 51.4028 52.7625 51.0371 50.0531C50.9621 49.4343 50.7934 48.8531 50.5871 48.2906C49.959 46.6124 48.9184 45.1125 48.3278 43.3968C48.2528 43.1906 48.1778 42.9843 48.1215 42.7687C47.259 39.4124 49.3309 36.1218 51.0746 33.45C52.7903 30.8343 53.4371 26.9906 52.2184 23.9906C51.5996 22.4718 50.6059 20.9531 49.3965 19.8375C47.9621 18.5062 45.7778 17.2968 46.0215 15C46.2278 13.0031 47.5778 10.9031 48.5996 9.25308C49.1059 8.4187 50.6996 6.71245 50.6434 5.7562C50.5965 4.7812 49.2371 4.2937 48.5903 3.72183C47.1278 2.42808 45.9653 1.43433 44.0903 0.843701C43.8072 0.742727 43.5095 0.688886 43.209 0.684326C41.9996 0.684326 41.5778 1.7812 40.9028 2.96245C39.6653 5.14683 38.4465 7.45308 37.6215 9.81558C36.0653 14.2031 35.8309 18.7312 39.1965 22.8375C40.359 24.2718 42.5059 25.6781 42.9934 27.3656ZM58.1996 65.1937C58.434 65.4374 58.6496 65.5406 58.8465 65.5406C59.2121 65.5406 59.5028 65.1656 59.7371 64.7249C59.9153 64.3874 60.0559 64.0406 60.1684 63.6749C60.7965 61.5656 62.0434 59.475 63.0746 57.525C63.2621 57.1781 63.4496 56.8406 63.6278 56.5031C64.3403 55.1625 65.0715 53.8218 65.8309 52.4906C66.4215 51.4406 67.0121 50.3812 67.6496 49.3687C69.3184 46.6968 71.5684 43.8468 74.3996 42.3562C76.1809 41.4 78.1871 40.9593 79.9778 40.0125C82.0121 38.9531 83.2028 37.35 84.5246 35.5218C85.8371 33.7125 86.5215 31.4812 87.7215 29.5781C88.2278 28.7718 88.1528 28.0593 89.0434 27.4968C91.0215 26.2593 93.3934 26.6812 95.5871 26.2593C100.772 25.2656 101.231 18.4312 105.468 15.9656C106.359 15.45 107.268 14.9718 108.168 14.4937C108.693 14.2125 109.706 13.8656 110.072 13.35C110.7 12.4687 109.509 11.3156 109.153 10.5093C108.534 9.12183 107.606 7.72495 106.809 6.4312C106.134 5.3437 105.534 4.35933 104.334 4.35933L104.1 4.37808C101.39 4.64058 98.9715 5.8312 97.2371 7.90308C95.1278 10.4343 94.8465 14.3437 91.5278 15.7312C89.3715 16.6312 86.8309 16.275 84.7871 17.5218C82.3684 19.0031 81.5903 21.9281 80.9153 24.4968C80.409 26.3718 80.3809 28.6312 78.9559 30.1031C77.0246 32.0812 74.0903 32.325 71.6153 33.3843C70.9496 33.675 70.3121 34.0218 69.7403 34.4718C66.5996 36.9468 64.8184 41.0062 63.4121 44.6437C62.8403 46.1343 62.3246 47.6531 61.8184 49.1718C61.3496 50.5875 60.8903 52.0031 60.4496 53.4281C60.2246 54.1593 59.9809 54.8906 59.7559 55.6312C59.184 57.4875 58.659 59.3906 57.984 61.2187C57.5153 62.3906 57.2246 64.1812 58.1996 65.1937ZM119.475 81.375C119.297 81.1875 119.043 81.1687 118.79 81.1687L118.5 81.1781L118.34 81.1687C117.778 81.1312 117.309 80.8875 116.765 80.7C114.262 79.8281 112.64 79.1062 110.428 77.6156C107.934 75.9374 105.075 74.3718 102 74.2312L101.643 74.2218C98.6059 74.2218 95.8028 75.8249 92.7559 75.8249H92.7371C89.3621 75.8062 86.4465 73.4062 83.784 71.6343C83.559 71.4843 83.334 71.3437 83.0903 71.2124C80.9996 70.0312 78.7496 69.5156 76.4809 69.4874C76.4246 69.4874 76.359 69.4687 76.3028 69.4687C74.7371 69.4687 73.1621 69.7124 71.6246 70.1437C70.1246 70.5562 68.6715 71.1562 67.284 71.8968C65.2972 72.9547 63.4167 74.2011 61.6684 75.6187C60.7028 76.3968 59.6434 77.2874 58.9871 78.3656C58.6309 78.9374 58.1434 81.1124 59.0528 81.4687L59.1746 81.4968C59.5309 81.4968 60.1121 81.1218 60.3653 80.9624C62.3903 79.7156 64.5278 78.6281 66.8059 77.9156C68.6715 77.325 70.6309 76.8937 72.5715 76.8187C72.7309 76.8093 72.8996 76.7999 73.059 76.7999C74.4559 76.7999 75.8434 77.0156 77.1934 77.5406L77.2496 77.5687C79.134 78.3187 80.709 79.6124 82.2653 80.8781C84.5528 82.7343 87.0934 83.1468 89.6809 83.1468C91.6965 83.1468 93.7403 82.9031 95.7371 82.9031C97.8278 82.9031 99.8528 83.1749 101.718 84.2718C103.237 85.1812 104.606 86.3718 105.778 87.6375C107.072 89.0156 108.722 90.1687 110.662 90.4687C111.487 90.5999 112.237 90.6656 113.072 90.6749H113.09C114.497 90.6749 115.031 89.0531 115.743 88.1249C116.718 86.8687 117.393 85.4249 118.284 84.1031C118.659 83.5218 120.112 82.0125 119.475 81.375Z" fill="#ED6C30"/>
</g>
<defs>
<clipPath id="clip0_212_520">
<rect width="120" height="120" fill="white"/>
</clipPath>
</defs>
</svg>

<svg xmlns="http://www.w3.org/2000/svg" fill="none" aria-hidden="true" data-slot="icon" viewBox="0 0 120 120"><g clip-path="url(#a)"><path fill="#FCC21B" d="M68.054 54.713a194 194 0 0 0-1.8 3.328l-.488.918-.047.075a41 41 0 0 1 4.35 7.21c.169.347.328.703.488 1.06a20.6 20.6 0 0 1 4.959-.826c-1.228-3.253-3.122-6.628-5.906-10.04-.488-.591-1.022-1.154-1.556-1.726m5.006 25.125c-.347 0-.703.018-1.06.056-1.94 6.131-8.24 8.812-14.897 7.987-10.453-1.284-20.043-9.234-23.259-19.219-.656-1.996-.881-3.984-.956-6.103-.188-5.456.862-11.296 6.328-13.556l.066-.028c.178-.075.356-.122.534-.178-.394-.59-.797-1.21-1.181-1.894-.544-.965-.872-1.987-1.069-2.981-5.86 2.044-9.431 7.219-11.934 12.919-2.392 5.457-17.925 47.41-17.925 47.41l-2.082 5.625c-.712 1.95-1.818 3.909-1.818 6.038 0 2.484 2.212 4.181 4.706 3.487 1.669-.469 3.506-1.331 5.203-2.006 3.59-1.463 10.247-4.341 10.247-4.341l27.825-11.456s13.416-4.856 19.06-10.172c2.737-2.578 4.93-6.29 5.896-10.725-.197-.103-.403-.216-.61-.3-.937-.384-1.94-.562-3.074-.562M52.2 44.568c.722 1.379 1.52 2.945 1.82 4.885a23.6 23.6 0 0 1 3.815 2.034c.422-1.35.862-2.68 1.322-4.04-.197-.122-.394-.263-.591-.375a32.8 32.8 0 0 0-6.516-2.794c.057.103.104.188.15.29"/><path fill="#D7598B" d="M104.934 29.981c-.15.938-.112 2.269.038 3.188.159 1.031.394 2.128.769 3.103.534 1.369 1.19.89 2.531.703.928-.122 1.79-.056 2.709-.244.966-.197 1.922-.45 2.888-.637 2.268-.431 3.403-.938 2.925-3.328-.347-1.725-.919-3.441-1.369-5.147-.413-.366-1.209-.16-1.697-.047-.862.197-1.716.244-2.578.394-1.556.253-3.188.44-4.716.806-.778.169-1.378.403-1.5 1.21"/><path fill="#40C0E7" d="M92.69 58.125c.357.816 1.229.61 2.082.797 1.893.431 3.815.384 5.756.384.722 0 2.55.272 3.066-.375.412-.525.056-1.565 0-2.175l-.225-2.38c-.038-.376.028-2.832-.291-3.038-.544-.366-1.575-.188-2.194-.178-1.134.037-2.25.178-3.403.178-1.49 0-3.103.018-4.547.375-.506 1.34-.365 2.737-.365 4.209 0 .684-.15 1.566.121 2.203"/><path fill="#D7598B" d="M86.175 98.616c-.779-1.153-1.163-2.7-2.897-2.531-1.632.159-3.075 1.453-4.51 2.156-.928.45-1.603 1.256-1.79 2.268-.216 1.154.262 2.072.815 3.057.413.74.685 1.593 1.013 2.372.337.806.853 1.528 1.2 2.325.234.562.16.515.675.712.262.094.694.169.975.178 1.64.047 3.422-1.612 4.612-2.587.957-.769 2.869-1.257 2.672-2.71-.14-1.078-.89-2.118-1.406-3.047-.431-.759-.89-1.49-1.36-2.193"/><path fill="#40C0E7" d="M104.494 106.491a1.6 1.6 0 0 0-.609-.254c-.994-.178-1.65 1.022-2.438 1.8-.947.91-2.072 1.632-2.934 2.625-.928 1.088-.207 2.063.75 2.644 1.04.628 1.968 1.416 3 2.072.918.591 1.659 1.116 2.681.478.928-.581 1.444-1.603 2.081-2.456 1.181-1.594 3.197-2.878 1.219-4.631-1.106-.985-2.531-1.472-3.75-2.278M8.438 51.619c.047-.432 1.265-3.882.9-3.985-.835-.206-1.622-.6-2.466-.825-.975-.253-1.978-.45-2.887-.9-1.097-.543-1.772-.272-2.232.338-.647.862-.853 2.41-1.162 3.356-.244.74-.394 1.584.131 2.11.6.59 1.594.928 2.372 1.18.975.32 2.062.882 3.066.976 1.368.15 2.137-1.088 2.278-2.25m55.903-33.3c1.219.543 2.4.853 3.647 1.21.44.13.722.346 1.181.102.59-.3 1.247-1.34 1.575-1.912.778-1.416 1.35-2.813 1.884-4.303.291-.797 1.153-2.091.938-2.935-.188-.712-1.219-1.153-1.8-1.462-.778-.403-1.519-.947-2.306-1.294-1.013-.44-2.4-.919-3.488-1.078-.6-.094-1.022.15-1.35.534-.3.347-.525.806-.75 1.228-1.134 2.175-2.531 5.447-2.484 7.96.019 1.19 2.053 1.547 2.953 1.95"/><path fill="#D7598B" d="M15.61 31.219c.684 1.05 1.293 2.006 2.1 3 .787.956 1.35 1.143 2.315.347.61-.488 1.303-.872 1.884-1.397.553-.488 1.013-1.106 1.566-1.613.394-.365 1.172-.731 1.397-1.237.31-.713-.338-1.331-.732-1.857-.487-.656-.862-1.368-1.396-2.024a35 35 0 0 0-2.194-2.372c-.628-.628-1.388-1.594-2.1-2.082a1.5 1.5 0 0 0-.628-.234c-.853-.122-1.866.366-2.531.76-.91.534-1.791 1.33-2.588 2.034-1.247 1.106-.037 2.56.694 3.61.731 1.012 1.518 1.996 2.212 3.065"/><path fill="#40C0E7" d="M15.685 9.347c.628.675 1.406 1.49 2.287 1.875.778.347 1.575-.347 2.203-.731.703-.432 1.275-1.06 1.8-1.688.478-.581 1.125-1.21 1.482-1.884.412-.77-.15-1.06-.722-1.52-.685-.562-1.378-1.143-1.96-1.818-.787-.919-1.575-1.95-2.409-2.794-.281-.29-.619-.365-.975-.3-1.116.188-2.437 1.754-3.094 2.27-.525.402-1.444 1.115-1.603 1.78-.197.75.244 1.472.619 2.1.61 1.013 1.547 1.829 2.372 2.71"/><path fill="#ED6C30" d="M42.993 27.366c1.294 4.48-2.156 7.94-2.53 12.187-.113 1.228-.113 2.456.093 3.638.131.768.347 1.518.731 2.203.506.9 1.088 1.715 1.622 2.56.525.815.994 1.64 1.313 2.587.703 2.1.215 3.993-.085 6.075-.244 1.659-1.087 3.225-2.1 4.537-.31.403-1.162.919-.956 1.51.028.103.215.14.487.14 1.125 0 3.779-.684 4.163-.862 1.687-.816 2.672-2.466 3.544-4.06 1.293-2.362 2.128-5.118 1.762-7.828a7.8 7.8 0 0 0-.45-1.762c-.628-1.679-1.669-3.178-2.26-4.894a7 7 0 0 1-.206-.628c-.862-3.357 1.21-6.647 2.954-9.319 1.715-2.616 2.362-6.46 1.143-9.46-.618-1.518-1.612-3.037-2.822-4.152-1.434-1.332-3.618-2.541-3.374-4.838.206-1.997 1.556-4.097 2.578-5.747.506-.834 2.1-2.54 2.043-3.497-.047-.975-1.406-1.462-2.053-2.034-1.462-1.294-2.625-2.288-4.5-2.878a2.8 2.8 0 0 0-.881-.16c-1.21 0-1.631 1.097-2.306 2.278-1.238 2.185-2.456 4.491-3.282 6.854-1.556 4.387-1.79 8.915 1.575 13.021 1.163 1.435 3.31 2.841 3.797 4.529M58.2 65.194c.234.243.45.347.646.347.366 0 .657-.375.891-.816.178-.338.319-.684.431-1.05.629-2.11 1.875-4.2 2.907-6.15.187-.347.375-.684.553-1.022.712-1.34 1.444-2.681 2.203-4.012.59-1.05 1.181-2.11 1.819-3.122 1.668-2.672 3.918-5.522 6.75-7.013 1.78-.956 3.787-1.397 5.578-2.343 2.034-1.06 3.225-2.663 4.547-4.491 1.312-1.81 1.996-4.04 3.197-5.944.506-.806.43-1.519 1.321-2.081 1.978-1.238 4.35-.816 6.544-1.238 5.185-.993 5.644-7.828 9.881-10.293.891-.516 1.8-.994 2.7-1.472.525-.281 1.538-.628 1.904-1.144.628-.881-.563-2.034-.919-2.84-.619-1.388-1.547-2.785-2.344-4.079-.675-1.087-1.275-2.072-2.475-2.072l-.234.02c-2.71.262-5.128 1.452-6.863 3.524-2.11 2.531-2.39 6.44-5.71 7.828-2.156.9-4.696.544-6.74 1.79-2.419 1.482-3.197 4.407-3.872 6.976-.506 1.875-.534 4.134-1.96 5.606-1.93 1.978-4.865 2.222-7.34 3.281-.665.291-1.303.638-1.875 1.088-3.14 2.475-4.922 6.534-6.328 10.172-.572 1.49-1.087 3.01-1.594 4.528a225 225 0 0 0-1.368 4.256c-.225.731-.47 1.463-.694 2.203-.572 1.856-1.097 3.76-1.772 5.588-.469 1.172-.76 2.962.216 3.975m61.275 16.181c-.178-.187-.432-.206-.685-.206l-.29.01-.16-.01c-.562-.038-1.031-.281-1.575-.469-2.503-.872-4.125-1.594-6.337-3.084-2.494-1.679-5.353-3.244-8.428-3.385l-.357-.01c-3.037 0-5.84 1.604-8.887 1.604h-.019c-3.375-.019-6.29-2.419-8.953-4.19a9 9 0 0 0-.694-.423c-2.09-1.18-4.34-1.696-6.61-1.725-.055 0-.121-.018-.177-.018-1.566 0-3.14.243-4.678.675a21 21 0 0 0-4.341 1.753 35 35 0 0 0-5.616 3.722c-.965.778-2.025 1.668-2.68 2.747-.357.571-.845 2.746.065 3.103l.122.028c.356 0 .937-.375 1.19-.535 2.025-1.246 4.163-2.334 6.44-3.046 1.866-.591 3.826-1.022 5.766-1.097.16-.01.329-.02.488-.02 1.397 0 2.784.217 4.134.742l.057.028c1.884.75 3.459 2.043 5.015 3.31 2.288 1.855 4.828 2.268 7.416 2.268 2.016 0 4.06-.244 6.056-.244 2.09 0 4.116.272 5.981 1.369 1.519.91 2.888 2.1 4.06 3.365 1.294 1.379 2.944 2.532 4.884 2.832.825.13 1.575.197 2.41.206h.018c1.407 0 1.941-1.622 2.653-2.55.975-1.256 1.65-2.7 2.541-4.022.375-.581 1.828-2.09 1.191-2.728"/></g><defs><clipPath id="a"><path fill="#fff" d="M0 0h120v120H0z"/></clipPath></defs></svg>
